svg/face with peeking eye.svg

<?xml version="1.0" encoding="UTF-8" standalone="no"?>
<svg
   width="128px"
   height="128px"
   version="1.1"
   xml:space="preserve"
   style="fill-rule:evenodd;clip-rule:evenodd;stroke-linecap:round;stroke-miterlimit:10;"
   id="svg10"
   sodipodi:docname="face with peeking eye.svg"
   inkscape:version="1.3 (0e150ed6c4, 2023-07-21)"
   xmlns:inkscape="http://www.inkscape.org/namespaces/inkscape"
   xmlns:sodipodi="http://sodipodi.sourceforge.net/DTD/sodipodi-0.dtd"
   xmlns:xlink="http://www.w3.org/1999/xlink"
   xmlns="http://www.w3.org/2000/svg"
   xmlns:svg="http://www.w3.org/2000/svg"><defs
     id="defs10"><path
   id="SVGID_1_"
   d="M125.83,75.35c7.81-30.05-8.92-59.14-38.28-65.49C24.23-3.83-3.89,53.75,0.75,95.17         c0,13.81,28.22,25.02,63.02,25.02c32.63,0,59.45-9.86,62.69-22.47c0.21-0.84,0.32-1.7,0.32-2.56         C126.78,88.6,122.65,87.61,125.83,75.35z" />&#10;	&#10;	&#10;&#10;		&#10;		&#10;		&#10;		&#10;		&#10;		&#10;	&#10;			&#10;		&#10;				&#10;			&#10;					&#10;				&#10;						<defs
   id="defs1">&#10;							<path
   id="path11"
   d="M 125.83,75.35 C 133.64,45.3 116.91,16.21 87.55,9.86 24.23,-3.83 -3.89,53.75 0.75,95.17 c 0,13.81 28.22,25.02 63.02,25.02 32.63,0 59.45,-9.86 62.69,-22.47 0.21,-0.84 0.32,-1.7 0.32,-2.56 0,-6.56 -4.13,-7.55 -0.95,-19.81 z" />&#10;						</defs>&#10;						<linearGradient
   id="SVGID_2_"
   gradientUnits="userSpaceOnUse"
   x1="68.605499"
   y1="65.350601"
   x2="82.306503"
   y2="10.2418">&#10;							<stop
   offset="0"
   style="stop-color:#FCC21B"
   id="stop1" />&#10;							<stop
   offset="1"
   style="stop-color:#42ADE7"
   id="stop2" />&#10;						</linearGradient>&#10;						&#10;						<clipPath
   id="SVGID_3_">&#10;							<use
   xlink:href="#SVGID_1_"
   overflow="visible"
   id="use3" />&#10;						</clipPath>&#10;					</defs><sodipodi:namedview
     id="namedview10"
     pagecolor="#ffffff"
     bordercolor="#000000"
     borderopacity="0.25"
     inkscape:showpageshadow="2"
     inkscape:pageopacity="0.0"
     inkscape:pagecheckerboard="0"
     inkscape:deskcolor="#d1d1d1"
     inkscape:zoom="5.3536311"
     inkscape:cx="80.692896"
     inkscape:cy="66.496923"
     inkscape:current-layer="svg10" /><use
     xlink:href="#SVGID_1_"
     overflow="visible"
     fill="url(#SVGID_2_)"
     id="use2"
     style="fill:#fcc21b;fill-opacity:1"
     transform="translate(-0.00157966,0.00374314)" /><path
     fill="#ffffff"
     d="m 90.23842,51.343743 c -1.62,8.91 -9.61,14.92 -17.83,13.42 -8.24,-1.5 -13.59,-9.94 -11.95,-18.85 1.62,-8.91 9.6,-14.91 17.83,-13.41 8.23,1.5 13.58,9.93 11.95,18.84 z"
     id="path7-1" /><path
     fill="#2f2f2f"
     d="m 78.74842,49.623743 c -0.39,3.32 -2.97,5.79 -5.78,5.54 -2.8,-0.25 -4.76,-3.15 -4.38,-6.45 0.38,-3.31 2.98,-5.8 5.78,-5.55 2.8,0.26 4.76,3.15 4.38,6.46"
     id="path10" /><g
     id="g48"
     transform="matrix(0.83865886,-0.01040669,0.01240778,0.99992302,-120.95625,63.357773)">&#10;	&#10;	<path
   fill="#2f2f2f"
   d="M 203.11704,39.425852 C 183.72302,35.537375 177.3314,23.669283 177.06492,23.167098 c -0.82489,-1.583053 -0.21011,-3.530192 1.36314,-4.357048 1.57128,-0.817051 3.51058,-0.214044 4.3394,1.349399 0.23905,0.435492 5.4513,9.690752 21.60972,12.930494 15.53091,3.113927 23.40287,-4.762245 23.72662,-5.105293 1.23418,-1.272202 3.27185,-1.31241 4.55582,-0.08607 1.28397,1.226342 1.33792,3.246364 0.11942,4.542108 -0.40618,0.448911 -10.47388,10.832356 -29.662,6.985162 z"
   id="path48" />&#10;</g><g
     id="g11"
     transform="translate(-5.2741247,-7.0625025)"><g
       transform="matrix(-0.0374117,-0.588119,-0.588119,0.0374117,95.8931,85.3518)"
       id="g7"><path
         d="m 119.5,69 c -6.5,-2.42 -13.38,-1.88 -16.45,1.67 -3.98,4.59 -3.5,6.59 -10.31,12.72 -8.51,2.51 -7.53,-7.54 -7.53,-7.54 0.15,-4.04 2.65,-18.79 3.13,-21.43 0.83,-4.19 3.78,-24.15 4.67,-30.08 1.03,-6.98 -0.36,-11.96 -5,-13.42 -4.5,-1.41 -7.5,0.59 -9.25,3.2 -0.99,8.11 -7.06,38.51 -7.15,39.83 -0.314,-0.045 5.995,-33.864 6.695,-36.674 0.29,-1.13 0.138,-0.604 0.455,-3.166 0.22,-1.78 0.36,-3.17 0.42,-4.04 C 79.57,3.86 75.33,-0.25 69.61,0.39 64.44,0.98 62.2,6.92 61.08,13.38 60.54,16.5 57.73,36.79 54.3,51.27 51.53,55.5 48.05,51.9 48.05,51.9 39.62,34.77 37.61,24.74 35.87,19.76 c -2.4,-6.82 -7,-9.77 -10.47,-8.6 -4.21,1.41 -5.71,5.39 -5.08,8.95 0.17,1.02 0.82,3.62 1.74,7.06 0.608,2.275 0.72,2.407 1.45,4.947 0.89,3.12 8.13,24.063 8.7,25.183 0.01,-0.01 0.04,-0.02 0.05,-0.03 -0.53,0.39 -8.19,-22.67 -10.2,-30.1 -1.68,-1.77 -3.91,-2.23 -6.89,-1.38 -4.1,1.14 -4.63,8.31 -3.71,11.72 1.09,4.02 3.69,15.6 6.8,26.6 0.45,12.56 0.64,12.52 2.14,22.94 2.85,19.77 7.05,28.75 15.32,33.21 13.55,7.24 32.89,11.67 48.03,1.15 3.45,-2.39 6.71,-6.47 9.74,-9.41 0.47,-0.45 7.54,-14.25 8.55,-15.5 3.52,-4.39 6.46,-7.12 8.84,-8.97 2.37,-1.86 4.33,-3.9 5.49,-4.9 7.38,-6.38 7.96,-11.83 3.13,-13.63 z"
         style="fill:#fcc21b;fill-rule:nonzero;stroke:#2f2f2f;stroke-width:8.48px;stroke-linecap:butt;stroke-linejoin:round;stroke-miterlimit:2"
         id="path7" /></g><g
       transform="matrix(-0.0374117,-0.588119,-0.588119,0.0374117,95.8931,85.3518)"
       id="g9"><path
         d="M 21.82,29.91 31,60.12 c 0,0 2.19,1.01 3.34,-1.12 -0.32,-1.35 -10.3,-29.67 -10.3,-29.67 0,0 -2.79,-5.26 -2.22,0.58 z M 77.43,15.33 c -1.03,2.3 -8.1,40.5 -8.1,40.5 0,0 0.96,1.84 3.39,0.77 0.49,-2.16 6.38,-40.91 6.38,-40.91 0,0 0.04,-2.93 -1.67,-0.36 z"
         style="fill:#424242;fill-rule:nonzero"
         id="path9" /></g></g></svg>

<?xml version="1.0" encoding="UTF-8" standalone="no"?><!DOCTYPE svg PUBLIC "-//W3C//DTD SVG 1.1//EN" "http://www.w3.org/Graphics/SVG/1.1/DTD/svg11.dtd"><svg width="128px" height="128px" version="1.1" xmlns="http://www.w3.org/2000/svg" xmlns:xlink="http://www.w3.org/1999/xlink" xml:space="preserve" xmlns:serif="http://www.serif.com/" style="fill-rule:evenodd;clip-rule:evenodd;stroke-linecap:round;stroke-miterlimit:10;"><path d="M63.79,8.64C1.48,8.64 0,78.5 0,92.33C0,106.16 28.56,117.36 63.79,117.36C99.03,117.36 127.58,106.15 127.58,92.33C127.58,78.5 126.11,8.64 63.79,8.64Z" style="fill:#fcc21b;fill-rule:nonzero;"/><path d="M42.21,66.47C37.72,66.51 34.04,62.2 33.99,56.85C33.94,51.48 37.54,47.1 42.03,47.06C46.51,47.02 50.2,51.33 50.25,56.7C50.3,62.06 46.7,66.43 42.21,66.47Z" style="fill:#2f2f2f;"/><g transform="matrix(1.4517,0,0,1.4517,-36.804,-25.6433)"><path d="M86.32,66.47C90.8,66.46 94.43,62.11 94.42,56.76C94.41,51.39 90.76,47.06 86.28,47.07C81.79,47.08 78.15,51.43 78.16,56.8C78.18,62.15 81.83,66.48 86.32,66.47Z" style="fill:#fff;"/></g><g transform="matrix(0.844256,0,0,0.844256,19.4151,8.84161)"><path d="M86.32,66.47C90.8,66.46 94.43,62.11 94.42,56.76C94.41,51.39 90.76,47.06 86.28,47.07C81.79,47.08 78.15,51.43 78.16,56.8C78.18,62.15 81.83,66.48 86.32,66.47Z" style="fill:#2f2f2f;"/></g><g transform="matrix(0.577597,0,0,0.268122,27.0338,63.9817)"><path d="M36.19,81.17C49.92,97.84 78.08,97.84 91.81,81.17" style="fill:none;fill-rule:nonzero;stroke:#2f2f2f;stroke-width:13.32px;"/></g><g transform="matrix(-0.0374117,-0.588119,-0.588119,0.0374117,95.8931,85.3518)"><path d="M78.75,14.12C77.76,22.23 75.2,38.32 71.89,49.98C73.15,34.92 76.26,20.05 76.96,17.24C77.25,16.11 77.86,15.03 78.75,14.12Z" style="fill:#424242;fill-rule:nonzero;"/></g><g transform="matrix(-0.0374117,-0.588119,-0.588119,0.0374117,95.8931,85.3518)"><path d="M119.5,69C113,66.58 106.12,67.12 103.05,70.67C99.07,75.26 99.55,77.26 92.74,83.39C84.23,85.9 85.21,75.85 85.21,75.85C85.36,71.81 87.86,57.06 88.34,54.42C89.17,50.23 92.12,30.27 93.01,24.34C94.04,17.36 92.65,12.38 88.01,10.92C83.51,9.51 80.51,11.51 78.76,14.12C77.77,22.23 71.7,52.63 71.61,53.95C71.296,53.905 77.605,20.086 78.305,17.276C78.595,16.146 78.443,16.672 78.76,14.11C78.98,12.33 79.12,10.94 79.18,10.07C79.57,3.86 75.33,-0.25 69.61,0.39C64.44,0.98 62.2,6.92 61.08,13.38C60.54,16.5 57.73,36.79 54.3,51.27C51.53,55.5 48.05,51.9 48.05,51.9C39.62,34.77 37.61,24.74 35.87,19.76C33.47,12.94 28.87,9.99 25.4,11.16C21.19,12.57 19.69,16.55 20.32,20.11C20.49,21.13 21.14,23.73 22.06,27.17C22.668,29.445 22.78,29.577 23.51,32.117C24.4,35.237 31.64,56.18 32.21,57.3C32.22,57.29 32.25,57.28 32.26,57.27C31.73,57.66 24.07,34.6 22.06,27.17C20.38,25.4 18.15,24.94 15.17,25.79C11.07,26.93 10.54,34.1 11.46,37.51C12.55,41.53 15.15,53.11 18.26,64.11C18.71,76.67 18.9,76.63 20.4,87.05C23.25,106.82 27.45,115.8 35.72,120.26C49.27,127.5 68.61,131.93 83.75,121.41C87.2,119.02 90.46,114.94 93.49,112C93.96,111.55 101.03,97.75 102.04,96.5C105.56,92.11 108.5,89.38 110.88,87.53C113.25,85.67 115.21,83.63 116.37,82.63C123.75,76.25 124.33,70.8 119.5,69Z" style="fill:#fcc21b;fill-rule:nonzero;stroke:#2f2f2f;stroke-width:8.48px;stroke-linecap:butt;stroke-linejoin:round;stroke-miterlimit:2;"/></g><g transform="matrix(-0.0374117,-0.588119,-0.588119,0.0374117,95.8931,85.3518)"><path d="M24.9,32.84C25.79,35.96 28.63,42.22 30.47,53.36C27.44,45.92 24.08,34.61 22.07,27.18C23.25,28.42 24.17,30.3 24.9,32.84Z" style="fill:#424242;fill-rule:nonzero;"/></g><g transform="matrix(-0.0374117,-0.588119,-0.588119,0.0374117,95.8931,85.3518)"><path d="M21.82,29.91L31,60.12C31,60.12 33.19,61.13 34.34,59C34.02,57.65 24.04,29.33 24.04,29.33C24.04,29.33 21.25,24.07 21.82,29.91ZM77.43,15.33C76.4,17.63 69.33,55.83 69.33,55.83C69.33,55.83 70.29,57.67 72.72,56.6C73.21,54.44 79.1,15.69 79.1,15.69C79.1,15.69 79.14,12.76 77.43,15.33Z" style="fill:#424242;fill-rule:nonzero;"/></g><g transform="matrix(-0.0374117,-0.588119,-0.588119,0.0374117,95.8931,85.3518)"><rect x="0.03" y="0" width="127.94" height="128" style="fill:none;"/></g></svg>
